X:1
T:Joseph, 88.78.87
T:Joseph, 88.78.87
T:Joseph Barnby, 1872
T:Public Domain Courtesy of the Cyber Hymnal™
C:Joseph Barnby, 1872
Z:Public Domain
Z:Courtesy of the Cyber Hymnal™
%%score ( 1 2 ) ( 3 4 )
L:1/8
Q:1/4=108
M:4/4
K:Ab
V:1 treble 
V:2 treble 
V:3 bass 
V:4 bass 
V:1
 [CF]2 [DF]2 | [EA]2 [DG]2 [CF]2 [C=E]2 | [=EG]2 F2 [FA]2 [FA]2 | [Fc]2 [FB]2 [EA]2 [EG]2 | %4
 [EG]2 [EA]2 [Ec]2 [Fc]2 | [G=B]2 [Ac]2 [Gc]2 [GB]2 | [Gc]4 [CG]2 [CG]2 | [CA]2 [=EG]2 F2 [_Ec]2 | %8
 [Ec]2 [=DB]2 [DF]2 [DF]2 | [EG]2 [=DF]2 E2 [_DB]2 | [CB]2 [CA]2 [DG]2 [DF]2 | [C=E]4 [=DF]4 x4 | %12
 [CF]4 [C=E]4 x2 | [CF]4 |] %14
V:2
 x4 | x8 | x2 F2 x4 | x8 | x8 | x8 | x8 | x4 F2 x2 | x8 | x4 E2 x2 | x8 | x12 | x10 | x4 |] %14
V:3
 [F,A,]2 [D,A,]2 | [A,,C]2 [B,,B,]2 [C,A,]2 [C,G,]2 | [C,B,]2 [F,A,]2 [F,C]2 [F,F]2 | %3
 [B,,E]2 [B,,D]2 [E,C]2 [E,B,]2 | [A,,D]2 [A,,C]2 [A,C]2 [A,=D]2 | [G,=D]2 [F,E]2 [G,D]2 [G,D]2 | %6
 [C,=E]4 [=E,C]2 [E,C]2 | [F,C]2 [G,B,]2 A,2 [F,A,]2 | [B,,A,]2 F,2 [B,=D]2 [B,,B,]2 | %9
 [E,B,]2 [F,A,]2 G,2 [G,,F,]2 | [A,,E,]2 [A,,C]2 [B,,B,]2 [B,,A,]2 | G,4 z2 x6 | G,6 z2 B,2 | %13
 [F,=A,]4 |] %14
V:4
 x4 | x8 | x8 | x8 | x8 | x8 | x8 | x4 A,2 x2 | x2 F,2 x4 | x4 G,2 x2 | x8 | C,6 (A,4 =B,,2) | %12
 C,4 C,4 x2 | x4 |] %14

